X:1
T:Solace A Mexican Serenade
T:Scott Joplin Adapt. Ph.Dailly
%%score 1 { ( 2 5 6 ) | ( 3 4 ) }
L:1/8
Q:1/4=48
M:2/4
K:C
V:1 treble transpose=-2 nm="Clarinette en Si♭" snm="Clar. Si♭"
V:2 treble nm="Piano" snm="Pia."
V:5 treble 
V:6 treble 
V:3 bass 
V:4 bass 
V:1
[K:D]"^Very Slow March Time" z4 | z4 | z4 | z2 !breath!z !fermata!d |: %4
!mf! (c/^B/=B/A/- A/)(^A/B/^B/) | (c/g/a/g/- g/)(a/g/c/) | (d/c/B/A/- A/)(^A/B/c/) | %7
 (d/a/b/a/- a/)(b/a/^d/) |!mp! (e/g/b/e'/- e'/)(g/f/e/- | e/)^A=A/- A z/!mp! e/ | %10
 (d/f/a/d'/- d'/)(f/e/d/- | d/)!<(!^GA/- Ad!<)! |!mf! (c/^B/=B/A/- A/)(^A/B/^B/) | %13
 (c/g/a/g/- g/)(a/g/c/) | (d/c/B/A/- A/)(^A/B/c/) | (d/a/b/a/- a/)!<(!(b/a/=c/)!<)! | %16
!f! B/ z d/- d/(c/d/e/ | =f2) (e_B) | A2- A/(ef/) |1 d z z2 :|2 d z z2 |: %21
!f!!f! b(d/4e/4f/4g/4 a/)g(3(g/4a/4g/4) | g/f/f/^e/- e!mp! =e | ^d2 (ef) |!<(! f(f/g/) (a^a)!<)! | %25
!f! b(d/4e/4f/4g/4 a/)g(3(g/4a/4g/4) | (g/f/)f/f/- ff | (f/e/)(f/c/-) c/(e/B) | (B A2)!p! c | %29
 B2!<(!!<(!!<(! (G/A/B/^B/)!<)!!<)!!<)! |!mf! c3!p! c | B2!<(! (G/A/B/^B/)!<)! |!mf! c3!<(! c!<)! | %33
!mf! d2- d/(d/e/f/) | f e2 G | GA- A/(A,/F) |1 D z z2 :|2 D z z2 || %38
!mp! (c/^B/=B/A/- A/)(^A/B/^B/) | (c/g/a/g/- g/)(a/g/c/) | (d/c/B/A/- A/)(^A/B/c/) | %41
 (d/a/b/a/- a/)(b/a/^d/) | (e/g/b/e'/- e'/)(g/f/e/- | e/)^A=A/- A z/!mp! e/ | %44
 (d/f/a/d'/- d'/)(f/e/d/- | d/)!<(!!<(!^GA/- Ad!<)!!<)! |!mf! (c/^B/=B/A/- A/)(^A/B/^B/) | %47
 (c/g/a/g/- g/)(a/g/c/) | (d/c/B/A/- A/)(^A/B/c/) | (d/a/b/a/- a/)!<(!(b/a/=c/)!<)! | %50
!f! B/ z d/- d/(c/d/e/ | =f2) (e_B) | A2- A/(ef/) | d2- d z |:[K:G]!p! (G/A/^A/B/- B/)(G/E/D/) | %55
 C/(C/D/E/- E)C | D/(A,/B,/C/- C)D | G,/(^A,/B,/D/- D)!fermata!D | (G/A/^A/B/- B)G | %59
 F2- F/(B/F/D/) | F,2- F,F | BF/B,/- B,!fermata!D | (G/A/^A/B/- B/)(G/E/D/) |!mp! C/(C/D/E/- E)C | %64
 D/(A,/B,/C/- C)D | (G,/^A,/B,/D/- D)!mf!D | (E/G/c/e/- e)_e | d/d^c/- cc | d>D D2 |1 %69
 G z z !fermata!D :|2 G z z (!fermata!e/g/) |:!f! (g/f/)^e/f/- f/(ef/) | (g/f/)^e/f/- f/(ef/) | %73
 (f/e/)^d/e/- e2 | z2!>(!!>(! z/ (ed/)!>)!!>)! |!mp! (d/c/)B/c/- c/(Bc/) | (d/c/)B/c/- c/(Bc/) | %77
 (c/B/)c/d/- d2- | d2- d!f! (!fermata!e/ g/) |!f! (g/f/)^e/f/- f/(ef/) | (g/f/)^e/f/- f/(ef/) | %81
 (f/e/)^d/e/- e2 | z2 z/!ff! d3/2 | (e/g/)(e/g/- g/)ge/ | (e/g/)(e/d/- d/)(ga/) | %85
 (b/^a/)(b/d/- d/)BA/ |1"_rall..." G3!>(! (!fermata!e/"_a tempo" g/)!>)! :| G2 !>!g z |] %88
V:2
!mf! (c>d) (e/^d/e) | (g>a) g(a/b/) | (c'>^d) (e/^G/A) | (A =G2) !fermata!c |:!mf! (B>G- G>^A) | %5
 (=B>[df]-) ([df]>B) | (=c>G-) (G>B) | (c>[eg]-) ([eg]>^c) | (=d>[fd']-) [fd']>d- | %9
 d/[CD_A][B,DG]/- ([B,DG]d) | (c>[ec']-) [ec']>c- | c/[C^F][CEG]/- ([CEG]c) | (B>G- G>^A) | %13
 =B>[df]- ([df]>B) | (=c>G- G>B) | (c>[eg]-) ([eg]>_B) | %16
!f! A/[fa][cfac']/-!<(! [cfac']>[=d=d']!<)! | ((!>![^da-c'-^d']2 ([=dac'=d']))[_Acf_a]) | %18
 [Gceg]2- [Gceg]/([dfd'][ege']/) |1 [cec']2 (e/d/c) :|2 [cec']!<(!(e/f/) [eg]!^![e^g]!<)! |: %21
!f! [fa](c/4d/4e/4f/4 (=g/)f)(3(f/4g/4f/4) |!>(! [_Af]/[Ge]/[Ge]/[^Fc^d]/-!>)! [Fcd][=FB=d] | %23
!mp! ((([E^A^c]2 [FBd])))[EBe] | [E=A=ce]!<(!(e/f/) [eg]!^![e^g]!<)! | %25
!f! [fa](c/4d/4e/4f/4 (=g/)f)(3(f/4g/4f/4) | [_Af]/[Ge]/[Ge]/[Gce]/- [Gce][G_Be] | %27
 (e/d/e/B/-) (B/d/=A) | (A G2)!mp! [Bdg] | (g/f)e/ ([Fdf]/[Geg]/[Afa]/[^Af^a]/) | %30
!mf! [Bdfb]3!mp! [Bd=g] | (g/f)e/ ([Fdf]/[Geg]/[Afa]/[^Af^a]/) |!mf! [Bdfb]3 [Bdfb] | %33
!mf! [cec']2- [cec']/([cc']/[dd']/[ee']/) | ([eae'] [dad']2)!mp! [Fcdf] | %35
 [FBdf][GBdg]- [GBdg]/(G/[FBe]) |1 [Ec]!<(!(e/f/) [eg]!^![e^g]!<)! :|2 [Ec]2 (e/d/c) || %38
!mf!!mf! (B>G- G>^A) | (=B>[df]-) ([df]>B) | (=c>G- G>B) | (c>[eg]-) ([eg]>^c) | %42
 (=d>[fd']-) [fd']>d- | d/[CD_A][B,DG]/- [B,DG]d | (c>[ec']-) [ec']>c- | c/[C^F][CEG]/- [CEG]c | %46
 (B>G- G>^A) | (=B>[df]- [df]>B) | (=c>G- G>B) | (c>[eg]-) ([eg]>_B) | %50
 A/[fa][cfac']/-!<(! [cfac']/([=B=b]/[cc']/[=d=d']/)!<)! | %51
 ((!>![^da-c'-^d']2 ([=dac'=d']))[_Acf_a]) | [Gceg]2- [Gceg]/([dfd'][ege']/) | %53
 [cec']2-!>(! [cec'][_B,E]!>)! |:[K:F]!mp! F2- (F/A/[Adf]) | [Gdf]>[G_B]- B/B/[df] | %56
 [Gdf]>[Gce]- e/^d/e | [FAe]>[FA]- [FA]!fermata![B,E] |"^a tempo" F2-!<(! (F/A/c/!<)!d/) | %59
!mf! e2- (e/^d/)e | e2- e/^d/e | [EAe]2- [EAe]!mp!!fermata![_B,E] | F2- ([CF]/A/[Adf]) | %63
 [Gdf]>[GB]- B/B/[df] | [Gdf]>[Gce]- e/^d/e | [FAe]>[FA]- [FA][FA] | [FB]>[FB]- (B/c/B) | %67
 [FA]/[FA][F^G]/- [FG][FGd] | d/cB/- [DEB][CEA] |1 [A,F]3 !fermata![B,E] :|2 %70
 [A,F]2-!<(! [A,F](!fermata!d/f/)!<)! |:!f! [fb]>[eb]- [eb]/[^db][eb]/ | %72
 [fb]>[eb]- [eb]/[^db][eb]/ | [ea]>[da]- [da]2- | [da]2- [da]/[Ad][A=c]/ | %75
 ([Ac]>[GB]-) [GB]/[^FA][GB]/ | ([Ac]>[GB]-) [GB]/[^FA][GB]/ | [GB]>[Ac]- [Ac]2- | %78
 [Ac]2- [Ac](!fermata!d/f/) | [fb]>[eb]- [eb]/[^db][eb]/ | [fb]>[eb]- [eb]/[^db][eb]/ | %81
 [ea]>[da]- [da]2- | [da]2- a/(a/f/_e/) | (d>f-) f/(fd/) | (d>c-) c/(fg/) | %85
 ([ca]>[Ac]-) c/(A=G/) |1 F3 !fermata!d/f/ :| F2 !^![FAcf] z |] %88
V:3
 (C>D) (E/^D/E) |[I:staff -1] G>A G(A/B/) | (c>^D) (E/[I:staff +1]^G,/A,) | %3
 (F, E,2) (!fermata!E,/_E,/) |: D,>G, [B,F]D, | (G,,>G, [B,F]^D,) | (E,>G, [CE]G,) | %7
 (C,>G, [CE]E,) | (F,>A, [DF]A,) | F,F, (D,/E,/F,) | (E,>G, [CE]G,) | (^D,E,) (C,/=D,/E,/_E,/) | %12
 D,>G, [B,F]D, | (G,,>G, [B,F]^D,) | (E,>G, [CE]G,) | C,>G, [CE]C, | (F,>A, [CF]A,) | %17
 (!>!^F2 =F2) | z/ (E,/F,/^F,/) G,<B, |1 ([C,C]/E,/F,/^F,/ G,/=F,/E,/_E,/) :|2 %20
 [C,C] z z !^![C,_B,] |:!ped!{C,,D,,E,,} F,,>A, [CF]F,,!ped-up! |{G,,A,,B,,} (C,>A, [C^D]_A,) | %23
{E,F,^F,} G,>(G, G,,)^G,, | A,,>A, [CE]!^!_B, |!ped!{C,,D,,E,,} F,,>A, [CF]F,,!ped-up! | %26
{G,,A,,B,,} (C,>G, [CE]^C,) | D,>G, [B,D]D, | G,,>G, [B,F]G,, | D,>F, [A,D]D, | %30
!ped! ^G,,>^G, [B,DF][=G,,=G,]!ped-up! | D,>F, [A,D]D, |!ped! ^G,,>^G, [B,DF]G,,!ped-up! | %33
!ped! A,,>A, [CE]A,,!ped-up! | (F,,>A, [DF][_A,,_A,]) |!ped! G,>G, [B,F][G,,G,]!ped-up! |1 %36
 [C,G,] z z !^![C,_B,] :|2 [C,G,]/(E,/F,/^F,/ G,/=F,/E,/_E,/) || D,>G, [B,F]D, | %39
 (G,,>G, [B,F]^D,) | (E,>G, [CE]G,) | (C,>G, [CE]E,) | (F,>A, [DF]A,) | F,F, (D,/E,/F,) | %44
 (E,>G, [CE]G,) | (^D,E,) (C,/=D,/E,/_E,/) | D,>G, [B,F]D, | G,,>G, [B,F]^D, | E,>G, [CE]G, | %49
 C,>G, [CE]C, | (F,>A, [CF]A,) | (!>!^F2 =F2) | z/ (E,/F,/^F,/ (G,<)B,) | [C,C]G,/C,/- C,C, |: %54
[K:F] (F,/G,/^G,/A,/-) (A,/F,/D,/C,/) | (B,,/B,/C/D/-) DB,, | (C,/G,/A,/B,/-) B,C,, | %57
 (F,,/^G,/A,/C/-) C!fermata!C, | (F,/G,/^G,/A,/-) A,F, | z/ (E/D/C/-) C2 | z/ (D/C/=B,/-) B,B, | %61
 C2- C!fermata!C, |"^a tempo" (F,/G,/^G,/A,/-) (A,/F,/D,/C,/) | (B,,/B,/C/D/-) DB,, | %64
 (C,/G,/A,/B,/-) B,C,, | (F,,/^G,/A,/C/-) C_E, | (D,/F,/B,/D/-) (D_D) | C/C=B,/- B,B, | %68
 C>C,- C,2 |1 (F,>C,F,,) !fermata!C, :|2 (F,>C,F,,) !fermata!_A,, |: G,,>G, [B,CE]C,, | %72
 G,,>G, [B,CE]C,, | F,,>A, [=CF]C,, | (F,,/^G,/A,/D/-) D2 | G,,>G, [B,CE]C,, | E,,>G, [B,CE]C,, | %77
 F,,>A, [CF]C,, | F,,/(^G,/A,/C/-) C!fermata!_A,, | G,,>G, [B,CE]C,, | G,,>G, [B,CE]C,, | %81
 F,,>A, [=CF]C,, | F,,/(^G,/A,/D/-) D[A,F] | [B,F]>[=B,F]- [B,F]<[B,F] | [CF]>[_EF]- E<F | %85
 [CF]>[CF]- F/(C_B,/) |1 A,3 z :| A,3 z |] %88
V:4
 x4 | x4 | x4 | x4 |: D,3 D, | G,,3 ^D, | E,3 G, | C,3 E, | F,3 A, | x4 | E,3 G, | x4 | D,3 D, | %13
 G,,3 ^D, | E,3 G, | C,3 C, | F,3 A, | x4 | x2 (G,G,,) |1 x4 :|2 x4 |: F,,3 F,, | C,3 _A, | x4 | %24
 (A,,3 C,) | F,,3 F,, | C,3 ^C, | D,3 D, | G,,3 G,, | D,3 D, | ^G,,3 =G,, | D,3 D, | ^G,,3 G,, | %33
 A,,3 A,, | F,,3 _A,, | [G,,G,]3 G,, |1 x4 :|2 x4 || D,3 D, | G,,3 ^D, | E,3 G, | C,3 E, | F,3 A, | %43
 x4 | E,3 G, | x4 | D,3 D, | G,,3 ^D, | E,3 G, | C,3 C, | F,3 A, | x4 | x2 (G,G,,) | x4 |: %54
[K:F] x4 | B,,3 B,, | C,3 C,, | F,,3 C, | x4 | E,2- (E,/A,/E,/C,/) | E,,2- E,,E, | %61
 A,E,/A,,/- A,,C, | x4 | B,,3 B,, | C,3 C,, | (F,,3 _E,) | x4 | x4 | x4 |1 x4 :|2 x4 |: G,,3 C,, | %72
 G,,3 C,, | F,,3 C,, | (F,,3 ^F,,) | G,,3 C,, | E,,3 C,, | F,,3 C,, | F,,3 _A,, | G,,3 C,, | %80
 G,,3 C,, | F,,3 C,, | (F,,3 A,) | x4 | x2 F/(D_B,/) | x2 C<C, |1 (F,>C,F,,) !fermata!_A,, :| %87
 F,>C,!^!F,, x |] %88
V:5
 x4 | x4 | x4 | x4 |: x4 | x4 | x4 | x4 | x4 | x4 | x4 | x4 | x4 | x4 | x4 | x4 | x4 | x4 | x4 |1 %19
 x4 :|2 x4 |: x2 (A>_A) | x4 | x4 | x4 | x2 (A>_A) | x4 | [G=B]>G- G[C^F] | [B,=F]2 x2 | [Ad]2 x2 | %30
 x4 | [Ad]2 x2 | x4 | x4 | x4 | x4 |1 x4 :|2 x4 || x4 | x4 | x4 | x4 | x4 | x4 | x4 | x4 | x4 | %47
 x4 | x4 | x4 | x4 | x4 | x4 | x4 |:[K:F] (A,/B,/=B,/C/-) C2 | x2 GG | x2 [Gc][GB] | x4 | %58
 (A,/B,/=B,/C/-) (CA) | z/ (c/=B/A/-) A[EAc] | z/ (=B/A/^G/-) G[EG] | x4 | (A,/B,/=B,/C/-) x2 | %63
 x2 GG | x2 [Gc][GB] | x4 | x2 FF | x4 | [FA]>[DE]- x2 |1 x4 :|2 x4 |: x4 | x4 | x4 | x4 | x4 | %76
 x4 | x4 | x4 | x4 | x4 | x4 | x2 d<=c | B>^G- G<G | A>A- A<B | x2 A<=E |1 x4 :| x4 |] %88
V:6
 x4 | x4 | x4 | x4 |: x4 | x4 | x4 | x4 | x4 | x4 | x4 | x4 | x4 | x4 | x4 | x4 | x4 | x4 | x4 |1 %19
 x4 :|2 x4 |: x4 | x4 | x4 | x4 | x4 | x4 | x4 | x4 | x4 | x4 | x4 | x4 | x4 | x4 | x4 |1 x4 :|2 %37
 x4 || x4 | x4 | x4 | x4 | x4 | x4 | x4 | x4 | x4 | x4 | x4 | x4 | x4 | x4 | x4 | x4 |:[K:F] x4 | %55
 x4 | x4 | x4 | x4 | x4 | E3 x | x4 | x4 | x4 | x4 | x4 | x4 | x4 | x4 |1 x4 :|2 x4 |: x4 | x4 | %73
 x4 | x4 | x4 | x4 | x4 | x4 | x4 | x4 | x4 | x4 | x4 | x4 | x4 |1 x4 :| x4 |] %88

